icons/evolvere-blue-folders-flat-vivid-dark-fallback/apps/64/hp_logo.svg

<?xml version="1.0" encoding="UTF-8" standalone="no"?>
<!-- Created with Inkscape (http://www.inkscape.org/) -->

<svg
   xmlns:dc="http://purl.org/dc/elements/1.1/"
   xmlns:cc="http://creativecommons.org/ns#"
   xmlns:rdf="http://www.w3.org/1999/02/22-rdf-syntax-ns#"
   xmlns:svg="http://www.w3.org/2000/svg"
   xmlns="http://www.w3.org/2000/svg"
   xmlns:sodipodi="http://sodipodi.sourceforge.net/DTD/sodipodi-0.dtd"
   xmlns:inkscape="http://www.inkscape.org/namespaces/inkscape"
   width="64"
   height="64"
   id="svg13094"
   version="1.1"
   inkscape:version="0.91+devel r"
   sodipodi:docname="hp_logo.svg">
  <sodipodi:namedview
     id="base"
     pagecolor="#ffffff"
     bordercolor="#666666"
     borderopacity="1.0"
     inkscape:pageopacity="0"
     inkscape:pageshadow="2"
     inkscape:zoom="11.313709"
     inkscape:cx="22.212876"
     inkscape:cy="31.20249"
     inkscape:document-units="px"
     inkscape:current-layer="svg13094"
     showgrid="false"
     inkscape:snap-bbox="true"
     inkscape:bbox-paths="true"
     inkscape:bbox-nodes="true"
     inkscape:snap-bbox-edge-midpoints="true"
     inkscape:snap-bbox-midpoints="true"
     inkscape:object-paths="true"
     inkscape:snap-intersection-paths="true"
     inkscape:object-nodes="true"
     inkscape:snap-smooth-nodes="true"
     inkscape:snap-midpoints="true"
     inkscape:snap-object-midpoints="true"
     inkscape:snap-center="true"
     showguides="true"
     inkscape:guide-bbox="true"
     inkscape:window-width="1920"
     inkscape:window-height="1023"
     inkscape:window-x="-10"
     inkscape:window-y="35"
     inkscape:window-maximized="1"
     inkscape:snap-global="true"
     fit-margin-top="0"
     fit-margin-left="0"
     fit-margin-right="0"
     fit-margin-bottom="0"
     showborder="true"
     inkscape:showpageshadow="false"
     inkscape:snap-page="true">
    <inkscape:grid
       type="xygrid"
       id="grid3075"
       empspacing="5"
       visible="true"
       enabled="true"
       snapvisiblegridlinesonly="true"
       originx="1.6362304e-08px"
       originy="18px" />
  </sodipodi:namedview>
  <defs
     id="defs13096" />
  <metadata
     id="metadata13099">
    <rdf:RDF>
      <cc:Work
         rdf:about="">
        <dc:format>image/svg+xml</dc:format>
        <dc:type
           rdf:resource="http://purl.org/dc/dcmitype/StillImage" />
        <dc:title></dc:title>
      </cc:Work>
    </rdf:RDF>
  </metadata>
  <path
     inkscape:connector-curvature="0"
     style="color:#000000;fill:#1b89d9;fill-opacity:1;fill-rule:nonzero;stroke:none;stroke-width:2.28571415;marker:none;visibility:visible;display:inline;overflow:visible;enable-background:accumulate"
     d="m 0,4 0,30 0,28 2,2 30,0 30,0 2,-2 L 64,34 64,4 32,4 0,4 z"
     id="path6498" />
  <path
     inkscape:connector-curvature="0"
     style="color:#000000;fill:#6fc8f2;fill-opacity:1;fill-rule:nonzero;stroke:none;stroke-width:2.28571415;marker:none;visibility:visible;display:inline;overflow:visible;enable-background:accumulate"
     d="M 2,0 0,1 0,4 32,4 64,4 64,1 62,0 32,0 2,0 z"
     id="path6502" />
  <rect
     style="color:#000000;fill:#eff8ff;fill-opacity:1;fill-rule:nonzero;stroke:none;stroke-width:2.28571415;marker:none;visibility:visible;display:inline;overflow:visible;enable-background:accumulate"
     id="rect3041"
     width="5.749999"
     height="4"
     x="27.03125"
     y="0" />
  <path
     inkscape:connector-curvature="0"
     style="fill:#92d5f5;fill-opacity:1;fill-rule:nonzero"
     d="M 0,3 0,6 2,4 Z"
     id="path4298"
     sodipodi:nodetypes="cccc" />
  <path
     d="M 64,6 62,4 64,3 z"
     id="path3028"
     style="fill:#43a7e5;fill-opacity:1"
     inkscape:connector-curvature="0" />
  <g
     id="g3043"
     inkscape:export-filename="folder.png"
     inkscape:export-xdpi="90"
     inkscape:export-ydpi="90"
     transform="translate(-0.62500009,0.082283)" />
  <g
     id="scalable"
     transform="matrix(1.0385892,0,0,1.0385892,1214.7222,1878.8121)"
     inkscape:label="#g3701"
     style="fill:#ffffff" />
  <path
     style="fill:#b8e2ff;color:#000000;fill-opacity:1;fill-rule:evenodd;stroke:none;stroke-width:1.5;marker:none;visibility:visible;display:inline;overflow:visible;enable-background:accumulate"
     d="M 27.03125 4 C 22.66979 16.07777 17.351865 31.006423 13 43.0625 C 13.278805 43.14714 13.557252 43.12207 13.84375 43.125 C 15.436298 43.1173 17.032453 43.1313 18.625 43.125 C 18.841918 43.1235 18.815363 42.825932 18.90625 42.6875 C 20.825314 37.276428 22.762276 31.876746 24.6875 26.46875 C 24.80301 26.133442 24.939719 25.787139 25.09375 25.46875 C 26.091786 25.48564 27.064457 25.4534 28.0625 25.46875 C 25.969395 31.330485 23.873912 37.211682 21.75 43.0625 C 21.971806 43.15173 22.204959 43.12026 22.4375 43.125 C 24.110138 43.10951 25.764863 43.14796 27.4375 43.125 C 29.32729 37.798538 31.292927 32.479652 33.1875 27.15625 C 33.592374 26.067268 33.612392 24.785636 32.96875 23.78125 C 32.406587 22.892222 31.330557 22.416522 30.3125 22.375 C 28.92017 22.3335 27.550117 22.3996 26.15625 22.375 C 27.996577 17.159595 30.868136 9.4273233 32.78125 4 L 32 4 L 27.03125 4 z M 38.40625 22.25 C 38.3632 22.33922 38.355242 22.568579 38.3125 22.65625 C 34.033251 34.659297 28.026941 51.868816 23.6875 64 L 29.46875 64 C 31.443213 58.406276 34.701888 48.909349 36.5 43.90625 C 38.585256 43.86779 40.664747 43.88214 42.75 43.84375 C 44.080957 43.79754 45.406346 43.010608 45.84375 41.71875 C 47.607263 36.759881 49.35445 31.855401 51.0625 26.875 C 51.342817 26.122864 51.50462 25.287512 51.28125 24.5 C 50.979386 23.501767 50.076542 22.733303 49.09375 22.46875 C 48.240488 22.204197 47.377906 22.327871 46.5 22.3125 C 43.823157 22.3048 41.081552 22.27614 38.40625 22.25 z M 43.1875 25.40625 C 43.351234 25.35759 43.521151 25.43049 43.6875 25.40625 C 44.460673 25.4201 45.226674 25.38936 46 25.40625 C 44.199527 30.538933 42.364957 35.669061 40.59375 40.8125 C 39.59263 40.88326 38.565159 40.8187 37.5625 40.8125 C 39.390698 35.713666 41.203051 30.631624 43.03125 25.53125 C 43.0727 25.48431 43.13264 25.422451 43.1875 25.40625 z "
     id="path10" />
</svg>

<svg xmlns="http://www.w3.org/2000/svg" viewBox="0 0 64 64"><g color="#000"><path d="m0 4v30 28l2 2h30 30l2-2v-28-30h-32-32" fill="#1b89d9"/><path d="m2 0l-2 1v3h32 32v-3l-2-1h-30-30" fill="#6fc8f2"/><path fill="#eff8ff" d="m27.03 0h5.75v4h-5.75z"/></g><path d="m0 3v3l2-2" fill="#92d5f5"/><path d="m64 6l-2-2 2-1z" fill="#43a7e5"/><path d="m27.03 4c-4.361 12.08-9.679 27.01-14.03 39.06.279.085.557.06.844.063 1.593-.008 3.189.006 4.781 0 .217-.002.19-.299.281-.438 1.919-5.411 3.856-10.811 5.781-16.219.116-.335.252-.682.406-1 .998.017 1.971-.015 2.969 0-2.093 5.862-4.189 11.743-6.313 17.594.222.089.455.058.688.063 1.673-.015 3.327.023 5 0 1.89-5.326 3.855-10.645 5.75-15.969.405-1.089.425-2.371-.219-3.375-.562-.889-1.638-1.365-2.656-1.406-1.392-.041-2.762.025-4.156 0 1.84-5.215 4.712-12.948 6.625-18.375h-.781-4.969m11.375 18.25c-.043.089-.051.319-.094.406-4.279 12-10.286 29.21-14.625 41.34h5.781c1.974-5.594 5.233-15.09 7.03-20.09 2.085-.038 4.165-.024 6.25-.063 1.331-.046 2.656-.833 3.094-2.125 1.764-4.959 3.511-9.863 5.219-14.844.28-.752.442-1.587.219-2.375-.302-.998-1.205-1.767-2.188-2.031-.853-.265-1.716-.141-2.594-.156-2.677-.008-5.418-.036-8.094-.063m4.781 3.156c.164-.049.334.024.5 0 .773.014 1.539-.017 2.313 0-1.8 5.133-3.635 10.263-5.406 15.406-1 .071-2.029.006-3.03 0 1.828-5.099 3.641-10.181 5.469-15.281.041-.047.101-.109.156-.125" fill="#b8e2ff" fill-rule="evenodd" color="#000"/></svg>
